X:1
T:L'allée d'émeraude et d'or
T:Alleluia
T:A Mademoiselle Marcella Pregi
T:Cécile Chaminade
T:Alleluia
T:Paul Mariéton
T:Creative Commons copyright waiver (CC0 1.0 Universal)
T:Creative Commons copyright waiver (CC0 1.0 Universal)
T:Creative Commons copyright waiver (CC0 1.0 Universal)
T:Creative Commons copyright waiver (CC0 1.0 Universal)
C:Cécile Chaminade
Z:Paul Mariéton
Z:Creative Commons copyright waiver (CC0 1.0 Universal)
%%score 1 { ( 2 4 6 ) | ( 3 5 ) }
L:1/8
Q:1/4=92
M:3/4
K:C
V:1 treble nm="Voice"
V:2 treble nm="Piano"
V:4 treble 
V:6 treble 
V:3 bass 
V:5 bass 
V:1
"^Allegretto" z | z6 | z6 | z6 | z6 | z6 | z2 z2 z"^dolce"!mp! G | E D !breath!!tenuto!.D3!<(! C | %8
w: ||||||J’a-|vais dou- té de|
 D E F G A B | c!<)! A!>(! B G A2-!>)! | A2 z2 z2 |!mf!!<(! G2 G G!<)! A A | %12
w: votre a- mour Et de ma|cons- tance el- le- mê-|me,|Mais voi- ci qu’a- vec|
!>(! G G (A2!>)!!p! E) E | G G C2"^dolce"[Q:1/4=90] F F | (E2 D) z!f![Q:1/4=92] G G | %15
w: le re- tour Du joy-|eux prin- temps, je vous|ai- me! Le prin-|
 c3/2 B/ (c3 A) | G A !breath!!tenuto!.B3 G |!<(! A G A B c d!<)! | %18
w: temps qui rit _|dans mon cœur Comme|un so- leil dans une eau|
 ((G3 A) !breath!!tenuto!.B)!mf! c | F E F!>(! G A B!>)! |!p! !breath!!tenuto!.E3 F G A | %21
w: pu- * re, M’a|ren- du mon pas- sé vain-|queur Et son i-|
"^dolce"[Q:1/4=90] (DE) G F2 E |!>(! (D4 C) z!>)! | z6 | z6 |!mf! D E E G G2 | E A A4 | %27
w: vres- se à la na-|tu- re.|||Je vous aime, en- fant,|ai- mez- moi;|
 (DE) E G G G | E ^F!>(! (F2 B,)!>)! z |!p! G G G G (3G A B |"^cresc." G3 G G G | %31
w: C’est _ le prin- temps qui|nous con- vi- e!|Ne sen- tez- vous pas que la|foi Qui nous re-|
!f!"^cresc." !breath!!tenuto!.A3 A A A |!ff![Q:1/4=90]"^cresc." B4- !breath!!tenuto!.B B | %33
w: vient, nous rend la|vi- e? Al-|
!fff![Q:1/4=88] c3/2 B/ c3 A | G A !breath!!tenuto!.B3!mf! G[Q:1/4=90] | %35
w: le- lu- ia pour|les beaux jours Du|
[Q:1/4=92]!<(! A G A B c d!<)! | ((G3 A) !breath!!tenuto!.B) c |{FG} F!>(! E F G A B!>)! | %38
w: prin- temps et de l’al- lé-|gres- * se! Mi-|gnonne, en gar- dant vos a-|
"^dolce"!mp! !breath!!tenuto!.E3 F G A |!>(! (DE)[Q:1/4=90] G F2 E!>)! | %40
w: mours, Vous gar- de-|rez _ vo- tre jeu-|
!p![Q:1/4=88]!>(! (D4 C2)!>)![Q:1/4=80] |] %41
w: nes- se!|
V:2
"^Allegretto"!f! (g | [ce][Bd] !tenuto!.[Bd]) cAB |({AB} AG) (G3 ^F) | (AG) (G3!>(! E) | %4
 (GF)!>)!!mp!!>(! (F3 C)!>)! |!p! (ED) D4- | !fermata!D2 z2 z!p! G, | %7
 ([F,-A,C][F,B,D]) [F,B,D]3!<(! [A,C] |"_cresc." ([B,D][CE][DF][EG]) ([FA][FGd]) | %9
 ([EGc]!<)![CEA])!>(! ([B,DG][G,B,E]) ([^F,CD][F,CD])!>)! | %10
 ([G,B,D] [G,B,]2!<(! [G,B,] [G,A,C][G,A,C])!<)! |!mf! [DG] [DG]2 [DG] [FA][FA] | %12
 [DG][DG] [FA]([FA] [CE])[CE] |!p! [B,G][B,G] [A,C][A,C] [A,DF][A,DF] | %14
 ([G,CE][G,CE] [G,B,D][G,-B,-D])!<(! !tenuto!G!tenuto!G!<)! |!f! [Gc] [Gc]2 [Gc] [^Fc][Fc] | %16
 [AB] [AB]2 [GB] [GB][GB] |!<(! [GA] [GA]2 [FA] [DA][DA]!<)! |!>(! [DG] [DG]2 [DG] [CG][CG]!>)! | %19
!mp! [CF] [CF]2!>(! [CF] [B,F][B,F]!>)! |!p! [A,CE] [A,CE]2 [A,CE] [G,CE][G,CE] | %21
 [G,B,D][G,B,E] [G,-B,-F] [G,B,E]2 [G,CE] | ([G,B,D]2!pp! [GBfg]2 !breath![cec']2) | %23
!f! ([Bd][ce]) ([ce][Bg]) !tenuto!.[Bg]2 | ([ce][cda]) [cda]4 | %25
!mf! ([B,D][CE]) ([CE][B,G]) [B,G]2 | ([G,CE][^F,CD]) z!p! ([ce]/a/ [ca]/e/[ce]/^f/) | %27
 [Bd] [CE] ([CE][B,G]) [B,G]2 | ([CE][B,^D]) [B,D]4 |!mf! ([G,=D][G,_E][G,=E][G,F][G,E][G,_E]) | %30
"_cresc." [DG][_EG][=EG][FG][EG][DG] |!f!!<(!"_cresc." [^CA][FA][^FA][GA][=FA][EA]!<)! | %32
!ff!!<(!"_cresc." [^DB][EB][^Ec][^FB][GB][AB]!<)! |!fff! [cgc'] [CGc]2 [CGc] [C^Fc][CFc] | %34
!>(! [Bab] [B,AB]2 [B,AB] [B,GB][B,GB]!>)! |!mf! [A,GA] [A,FA]2 [A,FA] [DGd][DGd] | %36
 [Gdg] [DG]2 [DG] [CG][CG] | [CF]!>(! [CF]2 [CF] [B,F][B,F]!>)! | %38
"_dolce" [A,CE] [A,CE]2 [A,CE] [G,CE][G,CE] | [G,B,D][G,B,E] [G,-B,-F] [G,B,F]2 [G,CE] | %40
 [G,B,D]2!pp! [GBfg]2 [cec']2 |] %41
V:3
 z |"^legatissimo"[I:staff -1] GF !tenuto!.F!mf!!<(! [EG][CE][DF]!<)! | %2
!f! [CDF][B,DF] [B,DF]3 [CE] |[I:staff +1] [B,D]4 [_B,_D]2 | [F,,C,]6 | [G,,,G,,]6- | %6
 !fermata![G,,,G,,]2 z2 z G,, | G,, G,,2 G,,2 G,, | G,, G,,2 G,,2 G,, | G,,G,, !>!D,,2 [D,,,D,,]2 | %10
 [G,,,G,,] [G,,D,]2 [G,,D,] [G,,E,][G,,E,] | [G,B,] [G,B,]2 [G,B,] [F,C][F,C] | %12
 [G,B,][G,B,] [F,C]([F,C] [E,A,])[E,A,] | [G,,F,][G,,F,] [A,,E,][A,,E,] [D,,D,][D,,D,] | %14
 G,,2 G,,,4 | [A,E] [A,E]2 [A,E] [A,D][A,D] | [G,D] [G,D]2 [G,D] [E,D][E,D] | %17
 [F,C] [F,C]2 [F,C] [F,B,][F,B,] | [E,B,] [E,B,]2 [E,B,] [E,A,][E,A,] | %19
 [D,A,] [D,A,]2 [D,A,] [D,G,][D,G,] | [G,,,G,,]4 [G,,,G,,]2 | %21
 [G,,F,][G,,E,] [G,,D,] [G,,D,]2 [G,,E,] | [G,,F,]2 [G,,,G,,]2 [C,,,C,,]2 | %23
[I:staff -1] [G,D][CG] [CG][G,D] !tenuto!.[G,D]2 | [A,G][D^F] [DF]4 | %25
[I:staff +1] (!>![G,,D,][C,G,]) ([C,G,][G,,D,]) !>![G,,D,]2 | (A,,D,,) !>![D,,A,,]4 | %27
 (!>![G,,D,][C,G,]) ([C,G,][G,,D,]) !>![G,,D,]2 | [A,,^F,-][B,,F,] [B,,F,]4 | B,,C,^C,D,C,=C, | %30
 [B,,G,][C,G,][^C,G,][D,G,][=C,G,][_B,,E,] | [A,,E,][D,A,][^D,A,][E,A,][=D,A,][C,^F,] | %32
 [B,,^F,][B,,G,][B,,^G,][B,,A,][B,,^A,][B,,B,] | z [A,,E,A,]2 [A,,E,A,] [A,,D,^F,][A,,D,F,] | %34
 z [G,,D,G,]2 [G,,D,G,] !arpeggio![C,G,][C,G,] | [F,,C,F,] !>![F,,,F,,]2 [F,,C,F,] [F,B,][F,B,] | %36
 [E,B,] [E,B,]2 [E,B,] [E,A,][E,A,] | [D,A,] [D,A,]2 [D,A,] [D,G,][D,G,] | [G,,,G,,]4 [G,,,G,,]2 | %39
 [G,,F,][G,,E,] [G,,D,] [G,,D,]2 [G,,E,] | [G,,F,]2 [G,,,G,,]2 [C,,,C,,]2 |] %41
V:4
 x | x6 | x6 | =F2- F3 E | A,4 _A,2 | [F,G,B,]6- | [F,G,B,]2 x4 | x6 | x6 | x6 | x6 | x6 | x6 | %13
 x6 | x4 [G,B,D]2 | x6 | x6 | x6 | x6 | x6 | x6 | x6 | x6 | x6 | x6 | x6 | x2 [^F,CD]4 | x6 | x6 | %29
 x6 | x6 | x6 | x6 | x6 | x6 | x6 | x6 | x6 | x6 | x6 | x6 |] %41
V:5
 x | x6 | x6 | x6 | x6 | x6 | x6 | !>!C,,6 | !>!C,,6 | !>!C,,2 x4 | x6 | x6 | x6 | x6 | x6 | x6 | %16
 x6 | x6 | x6 | x6 | x6 | x6 | x6 | x6 | x6 | x6 | x6 | x6 | x6 | x6 | x6 | x6 | x6 | %33
 !^![A,,,,A,,,]4 x2 | !>![G,,,D,,G,,]4 E,,2 | x6 | x6 | x6 | x6 | x6 | x6 |] %41
V:6
 x | x6 | x6 | x6 | x6 | x6 | x6 | x6 | x6 | x6 | x6 | x6 | x6 | x6 | x6 | x6 | x6 | x6 | x6 | x6 | %20
 x6 | x6 | x6 | x6 | x6 | x6 | x4 [D^F]2 | x6 | x6 | x6 | x6 | x6 | x6 | x6 | x6 | x6 | x6 | x6 | %38
 x6 | x6 | x6 |] %41

